src/assets/img/bottom-filling/adv5.svg

<svg width="60" height="60" viewBox="0 0 60 60" fill="none" xmlns="http://www.w3.org/2000/svg">
<path d="M54.1718 47.2008C53.5215 43.3018 50.7876 40.1024 47.0376 38.8521L38.7102 36.0766V34.8389H36.7747V36.4318C36.2385 37.024 34.335 38.7098 30.0005 38.7098C25.666 38.7098 23.7624 37.024 23.2263 36.4318V34.8389H21.2908V36.0766L12.9644 38.8521C9.21435 40.1024 6.48048 43.3018 5.83016 47.2008L3.69629 60.0002H56.3037L54.1718 47.2008ZM5.9821 58.0647L6.29274 56.1969L12.7253 57.0011C12.7911 57.4076 12.8744 57.7598 12.9682 58.0647H5.9821ZM12.5889 55.0347L6.61113 54.2876L7.73855 47.5202C8.27081 44.3295 10.5073 41.7118 13.576 40.6889L13.6427 40.6666L14.4885 49.1227C13.9776 49.9724 12.6334 52.4556 12.5889 55.0347ZM44.9589 58.0647H15.0421C14.8321 57.6447 14.5166 56.7563 14.5166 55.1614C14.5166 52.596 16.2721 49.9182 16.2905 49.8911L16.4811 49.6027L15.525 40.0395L21.9547 37.896C22.9098 38.854 25.3205 40.6453 30.0005 40.6453C34.6805 40.6453 37.0911 38.854 38.0463 37.896L44.475 40.0395L43.5189 49.6037L43.7105 49.8921C43.7298 49.9182 45.4844 52.5805 45.4844 55.1614C45.4844 56.7563 45.1689 57.6447 44.9589 58.0647ZM46.3582 40.6666L46.425 40.6889C49.4937 41.7118 51.7302 44.3295 52.2624 47.5202L53.3898 54.2876L47.4121 55.0347C47.3685 52.4566 46.0244 49.9724 45.5124 49.1227L46.3582 40.6666ZM47.0337 58.0647C47.1276 57.7598 47.2098 57.4076 47.2766 57.0011L53.7092 56.1969L54.0189 58.0647H47.0337Z" fill="#333333"/>
<path d="M17.8475 26.0748C18.3411 27.7732 19.2527 29.3303 20.5379 30.6155L24.3111 34.3897C25.2246 35.3032 26.4401 35.8065 27.733 35.8065H32.2679C33.5608 35.8065 34.7763 35.3032 35.6898 34.3897L39.463 30.6155C40.7482 29.3303 41.6588 27.7723 42.1533 26.0748C44.565 25.8019 46.4521 23.7736 46.4521 21.2903C46.4521 19.7642 45.7214 18.3319 44.5166 17.4242V9.01161C44.5166 4.04323 40.4733 0 35.505 0H24.4959C19.5275 0 15.4843 4.04323 15.4843 9.01161V17.4242C14.2795 18.3319 13.5488 19.7642 13.5488 21.2903C13.5488 23.7736 15.4359 25.8019 17.8475 26.0748ZM40.6456 23.0884C40.6456 25.4148 39.7388 27.6019 38.0946 29.2471L34.3214 33.0213C33.7727 33.569 33.044 33.871 32.2679 33.871H27.733C26.9569 33.871 26.2272 33.569 25.6795 33.0213L21.9062 29.2471C20.2621 27.6019 19.3553 25.4148 19.3553 23.0884V20.0555C19.9466 20.2113 20.5872 20.3226 21.2908 20.3226C22.7492 20.3226 23.7633 19.9065 24.8366 19.4661C26.1285 18.9348 27.465 18.3871 30.0004 18.3871C32.5359 18.3871 33.8724 18.9348 35.1643 19.4661C36.2375 19.9065 37.2517 20.3226 38.7101 20.3226C39.4137 20.3226 40.0543 20.2113 40.6456 20.0555V23.0884ZM38.7101 18.3871C37.634 18.3871 36.8685 18.0726 35.8998 17.6748C34.5711 17.13 32.9182 16.4516 30.0004 16.4516C27.0827 16.4516 25.4298 17.13 24.1011 17.6748C23.1324 18.0726 22.3669 18.3871 21.2908 18.3871C19.7085 18.3871 18.4466 17.7029 17.744 17.2152C18.8211 15.8052 22.1395 12.5806 30.0004 12.5806C37.8721 12.5806 41.1895 15.8148 42.2598 17.2181C41.564 17.7058 40.3088 18.3871 38.7101 18.3871ZM44.5166 21.2903C44.5166 22.5668 43.6824 23.6419 42.5356 24.029C42.5627 23.7184 42.5811 23.4048 42.5811 23.0884V19.2881C42.8201 19.1565 43.033 19.0248 43.2237 18.8981C44.0182 19.4352 44.5166 20.3255 44.5166 21.2903ZM17.4198 9.01161C17.4198 5.10968 20.594 1.93548 24.4959 1.93548H35.504C39.4069 1.93548 42.5811 5.10968 42.5811 9.01161V14.7358C40.6021 12.9106 36.7882 10.6452 30.0004 10.6452C23.2127 10.6452 19.3988 12.9106 17.4198 14.7358V9.01161ZM16.7772 18.8971C16.9679 19.0248 17.1808 19.1555 17.4198 19.2871V23.0874C17.4198 23.4039 17.4382 23.7174 17.4653 24.029C16.3185 23.6419 15.4843 22.5668 15.4843 21.2903C15.4843 20.3255 15.9837 19.4352 16.7772 18.8971Z" fill="#333333"/>
<path d="M39.0333 47.6826C38.8969 49.1875 37.6543 50.3226 36.1427 50.3226H23.8581C22.3465 50.3226 21.103 49.1875 20.9665 47.6826L20.3191 40.5581L18.3914 40.7333L19.0388 47.8587C19.2672 50.3662 21.3391 52.2581 23.8581 52.2581H36.1417C38.6617 52.2581 40.7327 50.3662 40.961 47.8578L41.6085 40.7333L39.6807 40.5581L39.0333 47.6826Z" fill="#333333"/>
</svg>

<svg width="60" height="60" fill="none" xmlns="http://www.w3.org/2000/svg"><path d="M54.172 47.2a10.624 10.624 0 00-7.134-8.348l-8.328-2.775v-1.238h-1.935v1.593c-.536.592-2.44 2.278-6.774 2.278-4.335 0-6.239-1.686-6.775-2.278v-1.593h-1.935v1.238l-8.327 2.775a10.624 10.624 0 00-7.134 8.349L3.696 60h52.608l-2.132-12.8zM5.982 58.066l.31-1.868 6.433.804c.066.407.15.759.243 1.064H5.982zm6.607-3.03l-5.978-.747L7.74 47.52a8.692 8.692 0 015.837-6.831l.067-.022.845 8.456c-.51.85-1.855 3.333-1.9 5.912zm32.37 3.03H15.042c-.21-.42-.525-1.309-.525-2.904 0-2.565 1.755-5.243 1.774-5.27l.19-.288-.956-9.564 6.43-2.143c.955.958 3.366 2.75 8.046 2.75s7.09-1.792 8.045-2.75l6.429 2.143-.956 9.565.192.288c.019.026 1.773 2.688 1.773 5.27 0 1.594-.315 2.483-.525 2.903zm1.4-17.398l.066.022a8.692 8.692 0 015.837 6.831l1.128 6.768-5.978.747c-.044-2.578-1.388-5.063-1.9-5.912l.846-8.456zm.675 17.398c.094-.305.176-.657.243-1.064l6.432-.804.31 1.868h-6.985z" fill="#333"/><path d="M17.848 26.075a10.58 10.58 0 002.69 4.54l3.773 3.775a4.808 4.808 0 003.422 1.416h4.535a4.808 4.808 0 003.422-1.416l3.773-3.774a10.594 10.594 0 002.69-4.541c2.412-.273 4.3-2.301 4.3-4.785a4.858 4.858 0 00-1.936-3.866V9.012C44.517 4.043 40.473 0 35.505 0h-11.01c-4.968 0-9.01 4.043-9.01 9.012v8.412a4.855 4.855 0 00-1.936 3.866c0 2.484 1.887 4.512 4.299 4.785zm22.798-2.987a8.657 8.657 0 01-2.551 6.16L34.32 33.02a2.887 2.887 0 01-2.053.85h-4.535a2.886 2.886 0 01-2.053-.85l-3.774-3.774a8.657 8.657 0 01-2.55-6.159v-3.033a7.522 7.522 0 001.935.268c1.458 0 2.472-.416 3.546-.857 1.291-.531 2.628-1.079 5.163-1.079 2.536 0 3.872.548 5.164 1.08 1.073.44 2.088.856 3.546.856.704 0 1.344-.112 1.936-.268v3.033zm-1.936-4.7c-1.076 0-1.842-.315-2.81-.713-1.329-.545-2.982-1.223-5.9-1.223-2.917 0-4.57.678-5.899 1.223-.969.398-1.734.712-2.81.712-1.582 0-2.844-.684-3.547-1.172 1.077-1.41 4.396-4.634 12.256-4.634 7.872 0 11.19 3.234 12.26 4.637-.696.488-1.951 1.17-3.55 1.17zm5.807 2.902a2.897 2.897 0 01-1.981 2.739c.027-.31.045-.624.045-.94v-3.8c.24-.133.452-.264.643-.39a2.9 2.9 0 011.293 2.391zM17.42 9.012a7.084 7.084 0 017.076-7.077h11.008a7.085 7.085 0 017.077 7.077v5.724c-1.979-1.825-5.793-4.09-12.58-4.09-6.788 0-10.602 2.265-12.581 4.09V9.012zm-.643 9.885c.19.128.404.259.643.39v3.8c0 .317.018.63.045.942a2.897 2.897 0 01-1.98-2.739c0-.964.499-1.855 1.292-2.393zm22.256 28.786a2.888 2.888 0 01-2.89 2.64H23.858a2.89 2.89 0 01-2.892-2.64l-.647-7.125-1.928.175.648 7.126a4.816 4.816 0 004.82 4.4h12.283a4.815 4.815 0 004.819-4.401l.648-7.125-1.928-.175-.648 7.125z" fill="#333"/></svg>
